assets/images/Header/Links/contacts.svg

<svg width="32" height="32" viewBox="0 0 32 32" fill="none" xmlns="http://www.w3.org/2000/svg">
<path d="M9.2363 4C8.75463 4 8.27848 4.17522 7.88245 4.48878L7.82719 4.51922L7.79772 4.54688L4.91964 7.51647L4.94727 7.54413C4.06036 8.36676 3.78407 9.59517 4.16996 10.6576C4.1718 10.6622 4.16812 10.6797 4.16996 10.6852C4.95003 12.9244 6.94857 17.2423 10.8471 21.147C14.7613 25.0665 19.1332 26.9848 21.2948 27.8332H21.3224C21.8645 28.0122 22.4437 28.0478 23.0036 27.9367C23.5636 27.8255 24.0853 27.5713 24.5182 27.1987L24.5458 27.171L24.5753 27.1415L27.4267 24.2891C28.1911 23.5236 28.1911 22.2011 27.4267 21.4357L23.6856 17.6896L23.6562 17.6315C22.8918 16.866 21.5425 16.866 20.7781 17.6315L20.7505 17.661L18.9361 19.4778C17.5536 18.8126 16.2821 17.9376 15.1665 16.8836C13.6598 15.4421 12.888 13.7849 12.6062 13.1356L14.4463 11.2912C15.2218 10.5146 15.2338 9.22905 14.4187 8.46728L14.4463 8.43777L14.3607 8.35201L10.6767 4.54688L10.6463 4.51922L10.5892 4.48878C10.206 4.17747 9.72975 4.0052 9.2363 4ZM9.2363 5.84446C9.30445 5.84446 9.37169 5.87766 9.43892 5.93115L13.1229 9.70584L13.18 9.76394L13.2076 9.79161C13.2011 9.787 13.2628 9.88106 13.1505 9.9945L10.848 12.3001L10.4152 12.704L10.6178 13.2795C10.6178 13.2795 11.6769 16.1135 13.8993 18.2374L14.0991 18.4099C16.2395 20.3668 18.763 21.4348 18.763 21.4348L19.3386 21.6948L19.7715 21.2632L22.0739 18.9577C22.2305 18.8009 22.2029 18.8009 22.3594 18.9577L26.1309 22.7323C26.2874 22.8891 26.2874 22.8338 26.1309 22.9906L23.3099 25.8154C22.8862 26.1806 22.4377 26.2543 21.9008 26.0754C19.812 25.2546 15.7578 23.4683 12.1429 19.8504C8.50043 16.2011 6.59676 12.0603 5.89865 10.0526C5.75774 9.67725 5.85905 9.12115 6.186 8.84171L6.21363 8.81404L6.2431 8.78361L9.03553 5.93115C9.09033 5.88029 9.16176 5.84971 9.2363 5.84446Z" fill="#565656"/>
</svg>

<svg xmlns="http://www.w3.org/2000/svg" width="32" height="32" fill="none" viewBox="0 0 32 32"><path fill="#565656" d="M9.236 4c-.481 0-.958.175-1.354.489l-.055.03-.03.028-2.877 2.97.027.027a2.897 2.897 0 0 0-.777 3.114c.002.004-.002.022 0 .027.78 2.24 2.779 6.557 6.677 10.462 3.914 3.92 8.286 5.838 10.448 6.686h.027a3.308 3.308 0 0 0 3.196-.634l.028-.028.03-.03 2.85-2.852c.765-.765.765-2.088 0-2.853l-3.74-3.746-.03-.059c-.764-.765-2.113-.765-2.878 0l-.027.03-1.815 1.817a14.89 14.89 0 0 1-3.77-2.594c-1.506-1.442-2.278-3.1-2.56-3.748l1.84-1.845c.776-.776.788-2.062-.027-2.824l.027-.03-.085-.085-3.684-3.805-.03-.028-.058-.03A2.181 2.181 0 0 0 9.236 4zm0 1.844c.068 0 .136.034.203.087l3.684 3.775.057.058.028.028c-.007-.005.055.09-.058.203L10.848 12.3l-.433.404.203.575s1.059 2.834 3.281 4.958l.2.173c2.14 1.957 4.664 3.025 4.664 3.025l.576.26.433-.432 2.302-2.305c.156-.157.129-.157.285 0l3.772 3.774c.156.157.156.102 0 .259l-2.821 2.824c-.424.366-.872.44-1.41.26-2.088-.82-6.142-2.607-9.757-6.225-3.643-3.649-5.546-7.79-6.244-9.797-.141-.376-.04-.932.287-1.211l.028-.028.03-.03L9.035 5.93a.33.33 0 0 1 .2-.087z"/></svg>
